Origami/64x64/apps/okteta.svg

<svg width="64" height="64" version="1" xmlns="http://www.w3.org/2000/svg">
 <path d="m10 56v2c0 1.662 1.338 3 3 3h38c1.662 0 3-1.338 3-3v-2c0 1.662-1.338 3-3 3h-38c-1.662 0-3-1.338-3-3z" style="opacity:.2"/>
 <path d="m54 57v-50c0-1.662-1.338-3-3-3h-38c-1.662 0-3 1.338-3 3v50c0 1.662 1.338 3 3 3h38c1.662 0 3-1.338 3-3z" style="fill:#4f4f4f"/>
 <path d="m13 4c-1.662 0-3 1.338-3 3v1c0-1.662 1.338-3 3-3h38c1.662 0 3 1.338 3 3v-1c0-1.662-1.338-3-3-3h-38z" style="fill:#ffffff;opacity:.1"/>
 <g style="fill:#ffffff;opacity:.5">
  <path d="m14.75 10a0.750075 0.66673333 0 0 0 -0.75 0.666016v6.667968a0.750075 0.66673333 0 0 0 0.75 0.666016h4.5a0.750075 0.66673333 0 0 0 0.75 -0.666016v-6.667968a0.750075 0.66673333 0 0 0 -0.75 -0.666016h-4.5zm0.25 1h4v6h-4v-6z" style="fill:#ffffff"/>
  <path d="m24.492192 9.9999999a0.49998983 0.66507862 0 0 0 -0.492131 0.6754131v6.650119a0.49998983 0.66507862 0 1 0 0.99988 0v-6.650119a0.49998983 0.66507862 0 0 0 -0.507939 -0.675213z" style="fill-rule:evenodd;fill:#ffffff"/>
  <path d="m30.492192 9.9999999a0.49998983 0.66507862 0 0 0 -0.492131 0.6754131v6.650119a0.49998983 0.66507862 0 1 0 0.99988 0v-6.650119a0.49998983 0.66507862 0 0 0 -0.507939 -0.675213z" style="fill-rule:evenodd;fill:#ffffff"/>
  <path d="m34.75 10a0.750075 0.66673333 0 0 0 -0.75 0.666016v6.667968a0.750075 0.66673333 0 0 0 0.75 0.666016h4.5a0.750075 0.66673333 0 0 0 0.75 -0.666016v-6.667968a0.750075 0.66673333 0 0 0 -0.75 -0.666016h-4.5zm0.25 1h4v6h-4v-6z" style="fill:#ffffff"/>
  <path d="m44.75 10a0.750075 0.66673333 0 0 0 -0.75 0.666016v6.667968a0.750075 0.66673333 0 0 0 0.75 0.666016h4.5a0.750075 0.66673333 0 0 0 0.75 -0.666016v-6.667968a0.750075 0.66673333 0 0 0 -0.75 -0.666016h-4.5zm0.25 1h4v6h-4v-6z" style="fill:#ffffff"/>
  <path d="m49.25 34a0.750075 0.66673333 0 0 1 0.75 0.666016v6.667968a0.750075 0.66673333 0 0 1 -0.75 0.666016h-4.5a0.750075 0.66673333 0 0 1 -0.75 -0.666016v-6.667968a0.750075 0.66673333 0 0 1 0.75 -0.666016h4.5zm-0.25 1h-4v6h4v-6z" style="fill:#ffffff"/>
  <path d="m39.507808 34a0.49998983 0.66507862 0 0 1 0.492131 0.675413v6.650119a0.49998983 0.66507862 0 1 1 -0.99988 0v-6.650119a0.49998983 0.66507862 0 0 1 0.507939 -0.675213z" style="fill-rule:evenodd;fill:#ffffff"/>
  <path d="m33.507808 34a0.49998983 0.66507862 0 0 1 0.492131 0.675413v6.650119a0.49998983 0.66507862 0 1 1 -0.99988 0v-6.650119a0.49998983 0.66507862 0 0 1 0.507939 -0.675213z" style="fill-rule:evenodd;fill:#ffffff"/>
  <path d="m29.25 34a0.750075 0.66673333 0 0 1 0.75 0.666016v6.667968a0.750075 0.66673333 0 0 1 -0.75 0.666016h-4.5a0.750075 0.66673333 0 0 1 -0.75 -0.666016v-6.667968a0.750075 0.66673333 0 0 1 0.75 -0.666016h4.5zm-0.25 1h-4v6h4v-6z" style="fill:#ffffff"/>
  <path d="m19.25 34a0.750075 0.66673333 0 0 1 0.75 0.666016v6.667968a0.750075 0.66673333 0 0 1 -0.75 0.666016h-4.5a0.750075 0.66673333 0 0 1 -0.75 -0.666016v-6.667968a0.750075 0.66673333 0 0 1 0.75 -0.666016h4.5zm-0.25 1h-4v6h4v-6z" style="fill:#ffffff"/>
  <path d="m27.25 22a0.750075 0.66673333 0 0 1 0.75 0.666016v6.667968a0.750075 0.66673333 0 0 1 -0.75 0.666016h-4.5a0.750075 0.66673333 0 0 1 -0.75 -0.666016v-6.667968a0.750075 0.66673333 0 0 1 0.75 -0.666016h4.5zm-0.25 1h-4v6h4v-6z" style="fill:#ffffff"/>
  <path d="m16.507808 22a0.49998983 0.66507862 0 0 1 0.492131 0.675413v6.650119a0.49998983 0.66507862 0 1 1 -0.99988 0v-6.650119a0.49998983 0.66507862 0 0 1 0.507939 -0.675213z" style="fill-rule:evenodd;fill:#ffffff"/>
  <path d="m34.492192 22a0.49998983 0.66507862 0 0 0 -0.492131 0.675413v6.650119a0.49998983 0.66507862 0 1 0 0.99988 0v-6.650119a0.49998983 0.66507862 0 0 0 -0.507939 -0.675213z" style="fill-rule:evenodd;fill:#ffffff"/>
  <path d="m44.75 22a0.750075 0.66673333 0 0 0 -0.75 0.666016v6.667968a0.750075 0.66673333 0 0 0 0.75 0.666016h4.5a0.750075 0.66673333 0 0 0 0.75 -0.666016v-6.667968a0.750075 0.66673333 0 0 0 -0.75 -0.666016h-4.5zm0.25 1h4v6h-4v-6z" style="fill:#ffffff"/>
  <path d="m38.492192 22a0.49998983 0.66507862 0 0 0 -0.492131 0.675413v6.650119a0.49998983 0.66507862 0 1 0 0.99988 0v-6.650119a0.49998983 0.66507862 0 0 0 -0.507939 -0.675213z" style="fill-rule:evenodd;fill:#ffffff"/>
  <path d="m36.75 46a0.750075 0.66673333 0 0 0 -0.75 0.666016v6.667968a0.750075 0.66673333 0 0 0 0.75 0.666016h4.5a0.750075 0.66673333 0 0 0 0.75 -0.666016v-6.667968a0.750075 0.66673333 0 0 0 -0.75 -0.666016h-4.5zm0.25 1h4v6h-4v-6z" style="fill:#ffffff"/>
  <path d="m47.492192 46a0.49998983 0.66507862 0 0 0 -0.492131 0.675413v6.650119a0.49998983 0.66507862 0 1 0 0.99988 0v-6.650119a0.49998983 0.66507862 0 0 0 -0.507939 -0.675213z" style="fill-rule:evenodd;fill:#ffffff"/>
  <path d="m29.507808 46a0.49998983 0.66507862 0 0 1 0.492131 0.675413v6.650119a0.49998983 0.66507862 0 1 1 -0.99988 0v-6.650119a0.49998983 0.66507862 0 0 1 0.507939 -0.675213z" style="fill-rule:evenodd;fill:#ffffff"/>
  <path d="m19.25 46a0.750075 0.66673333 0 0 1 0.75 0.666016v6.667968a0.750075 0.66673333 0 0 1 -0.75 0.666016h-4.5a0.750075 0.66673333 0 0 1 -0.75 -0.666016v-6.667968a0.750075 0.66673333 0 0 1 0.75 -0.666016h4.5zm-0.25 1h-4v6h4v-6z" style="fill:#ffffff"/>
  <path d="m25.507808 46a0.49998983 0.66507862 0 0 1 0.492131 0.675413v6.650119a0.49998983 0.66507862 0 1 1 -0.99988 0v-6.650119a0.49998983 0.66507862 0 0 1 0.507939 -0.675213z" style="fill-rule:evenodd;fill:#ffffff"/>
 </g>
 <path d="M 63.958,45.848 A 16,16 0 0 1 48,61 16,16 0 0 1 32.042,46.152 16,16 0 0 0 32,47 16,16 0 0 0 48,63 16,16 0 0 0 64,47 16,16 0 0 0 63.95704,45.84766 Z" style="opacity:.2"/>
 <circle cx="48" cy="46" r="16" style="fill-rule:evenodd;fill:#f34235"/>
 <path d="m40 50.436v3.564h3.5638l9.0008-9.0008-3.5638-3.5638zm15.7172-8.5782c0.37696-0.37694 0.37696-0.9709 0-1.34786l-2.2274-2.2274c-0.37696-0.37696-0.97092-0.37696-1.34786 0l-1.862 1.874 3.564 3.564z" style="fill:#ffffff"/>
</svg>

<svg xmlns="http://www.w3.org/2000/svg" width="64" height="64" version="1">
 <path style="opacity:0.2" d="m 10,56 0,2 c 0,1.662 1.338,3 3,3 l 38,0 c 1.662,0 3,-1.338 3,-3 l 0,-2 c 0,1.662 -1.338,3 -3,3 l -38,0 c -1.662,0 -3,-1.338 -3,-3 z"/>
 <path style="fill:#4f4f4f" d="M 54,57 54,7 C 54,5.338 52.662,4 51,4 L 13,4 c -1.662,0 -3,1.338 -3,3 l 0,50 c 0,1.662 1.338,3 3,3 l 38,0 c 1.662,0 3,-1.338 3,-3 z"/>
 <path style="opacity:0.1;fill:#ffffff" d="M 13 4 C 11.338 4 10 5.338 10 7 L 10 8 C 10 6.338 11.338 5 13 5 L 51 5 C 52.662 5 54 6.338 54 8 L 54 7 C 54 5.338 52.662 4 51 4 L 13 4 z"/>
 <g style="fill:#ffffff;opacity:0.5">
  <path style="fill:#ffffff" d="M 14.75,10 A 0.750075,0.66673333 0 0 0 14,10.666016 l 0,6.667968 A 0.750075,0.66673333 0 0 0 14.75,18 l 4.5,0 A 0.750075,0.66673333 0 0 0 20,17.333984 l 0,-6.667968 A 0.750075,0.66673333 0 0 0 19.25,10 l -4.5,0 z m 0.25,1 4,0 0,6 -4,0 0,-6 z"/>
  <path style="fill:#ffffff;fill-rule:evenodd" d="m 24.492192,9.9999999 a 0.49998983,0.66507862 0 0 0 -0.492131,0.6754131 l 0,6.650119 a 0.49998983,0.66507862 0 1 0 0.99988,0 l 0,-6.650119 A 0.49998983,0.66507862 0 0 0 24.492002,10.0002 Z"/>
  <path style="fill:#ffffff;fill-rule:evenodd" d="m 30.492192,9.9999999 a 0.49998983,0.66507862 0 0 0 -0.492131,0.6754131 l 0,6.650119 a 0.49998983,0.66507862 0 1 0 0.99988,0 l 0,-6.650119 A 0.49998983,0.66507862 0 0 0 30.492002,10.0002 Z"/>
  <path style="fill:#ffffff" d="M 34.75,10 A 0.750075,0.66673333 0 0 0 34,10.666016 l 0,6.667968 A 0.750075,0.66673333 0 0 0 34.75,18 l 4.5,0 A 0.750075,0.66673333 0 0 0 40,17.333984 l 0,-6.667968 A 0.750075,0.66673333 0 0 0 39.25,10 l -4.5,0 z m 0.25,1 4,0 0,6 -4,0 0,-6 z"/>
  <path style="fill:#ffffff" d="M 44.75,10 A 0.750075,0.66673333 0 0 0 44,10.666016 l 0,6.667968 A 0.750075,0.66673333 0 0 0 44.75,18 l 4.5,0 A 0.750075,0.66673333 0 0 0 50,17.333984 l 0,-6.667968 A 0.750075,0.66673333 0 0 0 49.25,10 l -4.5,0 z m 0.25,1 4,0 0,6 -4,0 0,-6 z"/>
  <path style="fill:#ffffff" d="M 49.25,34 A 0.750075,0.66673333 0 0 1 50,34.666016 l 0,6.667968 A 0.750075,0.66673333 0 0 1 49.25,42 l -4.5,0 A 0.750075,0.66673333 0 0 1 44,41.333984 l 0,-6.667968 A 0.750075,0.66673333 0 0 1 44.75,34 l 4.5,0 z m -0.25,1 -4,0 0,6 4,0 0,-6 z"/>
  <path style="fill:#ffffff;fill-rule:evenodd" d="m 39.507808,34 a 0.49998983,0.66507862 0 0 1 0.492131,0.675413 l 0,6.650119 a 0.49998983,0.66507862 0 1 1 -0.99988,0 l 0,-6.650119 A 0.49998983,0.66507862 0 0 1 39.507998,34.0002 Z"/>
  <path style="fill:#ffffff;fill-rule:evenodd" d="m 33.507808,34 a 0.49998983,0.66507862 0 0 1 0.492131,0.675413 l 0,6.650119 a 0.49998983,0.66507862 0 1 1 -0.99988,0 l 0,-6.650119 A 0.49998983,0.66507862 0 0 1 33.507998,34.0002 Z"/>
  <path style="fill:#ffffff" d="M 29.25,34 A 0.750075,0.66673333 0 0 1 30,34.666016 l 0,6.667968 A 0.750075,0.66673333 0 0 1 29.25,42 l -4.5,0 A 0.750075,0.66673333 0 0 1 24,41.333984 l 0,-6.667968 A 0.750075,0.66673333 0 0 1 24.75,34 l 4.5,0 z m -0.25,1 -4,0 0,6 4,0 0,-6 z"/>
  <path style="fill:#ffffff" d="M 19.25,34 A 0.750075,0.66673333 0 0 1 20,34.666016 l 0,6.667968 A 0.750075,0.66673333 0 0 1 19.25,42 l -4.5,0 A 0.750075,0.66673333 0 0 1 14,41.333984 l 0,-6.667968 A 0.750075,0.66673333 0 0 1 14.75,34 l 4.5,0 z m -0.25,1 -4,0 0,6 4,0 0,-6 z"/>
  <path style="fill:#ffffff" d="M 27.25,22 A 0.750075,0.66673333 0 0 1 28,22.666016 l 0,6.667968 A 0.750075,0.66673333 0 0 1 27.25,30 l -4.5,0 A 0.750075,0.66673333 0 0 1 22,29.333984 l 0,-6.667968 A 0.750075,0.66673333 0 0 1 22.75,22 l 4.5,0 z m -0.25,1 -4,0 0,6 4,0 0,-6 z"/>
  <path style="fill:#ffffff;fill-rule:evenodd" d="m 16.507808,22 a 0.49998983,0.66507862 0 0 1 0.492131,0.675413 l 0,6.650119 a 0.49998983,0.66507862 0 1 1 -0.99988,0 l 0,-6.650119 A 0.49998983,0.66507862 0 0 1 16.507998,22.0002 Z"/>
  <path style="fill:#ffffff;fill-rule:evenodd" d="m 34.492192,22 a 0.49998983,0.66507862 0 0 0 -0.492131,0.675413 l 0,6.650119 a 0.49998983,0.66507862 0 1 0 0.99988,0 l 0,-6.650119 A 0.49998983,0.66507862 0 0 0 34.492002,22.0002 Z"/>
  <path style="fill:#ffffff" d="M 44.75,22 A 0.750075,0.66673333 0 0 0 44,22.666016 l 0,6.667968 A 0.750075,0.66673333 0 0 0 44.75,30 l 4.5,0 A 0.750075,0.66673333 0 0 0 50,29.333984 l 0,-6.667968 A 0.750075,0.66673333 0 0 0 49.25,22 l -4.5,0 z m 0.25,1 4,0 0,6 -4,0 0,-6 z"/>
  <path style="fill:#ffffff;fill-rule:evenodd" d="m 38.492192,22 a 0.49998983,0.66507862 0 0 0 -0.492131,0.675413 l 0,6.650119 a 0.49998983,0.66507862 0 1 0 0.99988,0 l 0,-6.650119 A 0.49998983,0.66507862 0 0 0 38.492002,22.0002 Z"/>
  <path style="fill:#ffffff" d="M 36.75,46 A 0.750075,0.66673333 0 0 0 36,46.666016 l 0,6.667968 A 0.750075,0.66673333 0 0 0 36.75,54 l 4.5,0 A 0.750075,0.66673333 0 0 0 42,53.333984 l 0,-6.667968 A 0.750075,0.66673333 0 0 0 41.25,46 l -4.5,0 z m 0.25,1 4,0 0,6 -4,0 0,-6 z"/>
  <path style="fill:#ffffff;fill-rule:evenodd" d="m 47.492192,46 a 0.49998983,0.66507862 0 0 0 -0.492131,0.675413 l 0,6.650119 a 0.49998983,0.66507862 0 1 0 0.99988,0 l 0,-6.650119 A 0.49998983,0.66507862 0 0 0 47.492002,46.0002 Z"/>
  <path style="fill:#ffffff;fill-rule:evenodd" d="m 29.507808,46 a 0.49998983,0.66507862 0 0 1 0.492131,0.675413 l 0,6.650119 a 0.49998983,0.66507862 0 1 1 -0.99988,0 l 0,-6.650119 A 0.49998983,0.66507862 0 0 1 29.507998,46.0002 Z"/>
  <path style="fill:#ffffff" d="M 19.25,46 A 0.750075,0.66673333 0 0 1 20,46.666016 l 0,6.667968 A 0.750075,0.66673333 0 0 1 19.25,54 l -4.5,0 A 0.750075,0.66673333 0 0 1 14,53.333984 l 0,-6.667968 A 0.750075,0.66673333 0 0 1 14.75,46 l 4.5,0 z m -0.25,1 -4,0 0,6 4,0 0,-6 z"/>
  <path style="fill:#ffffff;fill-rule:evenodd" d="m 25.507808,46 a 0.49998983,0.66507862 0 0 1 0.492131,0.675413 l 0,6.650119 a 0.49998983,0.66507862 0 1 1 -0.99988,0 l 0,-6.650119 A 0.49998983,0.66507862 0 0 1 25.507998,46.0002 Z"/>
 </g>
 <g>
  <path style="opacity:0.2" d="M 63.958,45.848 A 16,16 0 0 1 48,61 16,16 0 0 1 32.042,46.152 16,16 0 0 0 32,47 16,16 0 0 0 48,63 16,16 0 0 0 64,47 16,16 0 0 0 63.95704,45.84766 Z"/>
  <circle style="fill:#f34235;fill-rule:evenodd" cx="48" cy="46" r="16"/>
  <path style="fill:#ffffff" d="m 40,50.436 0,3.564 3.5638,0 9.0008,-9.0008 -3.5638,-3.5638 z m 15.7172,-8.5782 c 0.37696,-0.37694 0.37696,-0.9709 0,-1.34786 l -2.2274,-2.2274 c -0.37696,-0.37696 -0.97092,-0.37696 -1.34786,0 l -1.862,1.874 3.564,3.564 z"/>
 </g>
</svg>
